rospo-icon-theme-classic-common/24x24/apps/aegisub.svg

<svg height="24" width="24" xmlns="http://www.w3.org/2000/svg"><path d="m6.3150028 2.8111197a2.386832 2.4086047 10.871574 0 0 -.9251243.9102332l-4.0679285 7.0917561a2.386832 2.4086047 10.871574 0 0 -.004 2.408068l4.044537 7.078415a2.386832 2.4086047 10.871574 0 0 2.0657231 1.200405l8.1123079-.01361a2.386832 2.4086047 10.871574 0 0 2.069734-1.207425l4.067823-7.091939a2.386832 2.4086047 10.871574 0 0  .0039-2.408068l-4.044437-7.0784206a2.386832 2.4086047 10.871574 0 0 -2.065918-1.200536l-8.1122034.0137985a2.386832 2.4086047 10.871574 0 0 -1.1447903.2972984z" opacity=".2"/><path d="m6.3150028 2.3111199a2.386832 2.4086047 10.871574 0 0 -.9251243.9102332l-4.0679285 7.0917549a2.386832 2.4086047 10.871574 0 0 -.004 2.408068l4.044537 7.078415a2.386832 2.4086047 10.871574 0 0 2.0657231 1.200405l8.1123079-.01361a2.386832 2.4086047 10.871574 0 0 2.069734-1.207425l4.067823-7.091939a2.386832 2.4086047 10.871574 0 0  .0039-2.408068l-4.044437-7.0784194a2.386832 2.4086047 10.871574 0 0 -2.065918-1.200536l-8.1122034.0137985a2.386832 2.4086047 10.871574 0 0 -1.1447903.2972984z" fill="#ff4141"/><path d="m6.6787099 2.1503857a2.386832 2.4086047 10.871574 0 0 -.3642581.1611329 2.386832 2.4086047 10.871574 0 0 -.9248048.9101564l-4.0673839 7.091799a2.386832 2.4086047 10.871574 0 0 -.00391 2.407227l4.0439499 7.079103a2.386832 2.4086047 10.871574 0 0 2.0654306 1.200196l8.1123064-.01367a2.386832 2.4086047 10.871574 0 0 1.634766-.657227z" opacity=".2"/><path d="m16.47754 2.1826123-10.4775413 18.1464887s-.067045.103508-.082031.125977a2.386832 2.4086047 10.871574 0 0 1.5097659.544922l8.1123064-.01367a2.386832 2.4086047 10.871574 0 0 2.070313-1.207031l4.067384-7.091801a2.386832 2.4086047 10.871574 0 0  .0039-2.408204l-4.04394-7.0791034a2.386832 2.4086047 10.871574 0 0 -1.160157-1.0175783z" opacity=".2"/><path d="m1.0507812 12a2.386832 2.4086047 10.871574 0 0  .2675782.720703l4.0449218 7.078125a2.386832 2.4086047 10.871574 0 0  .0097657.015625c.1001127.171866.2202285.328184.3554687.466797a2.386832 2.4086047 10.871574 0 0  .03125.03125c.1387343.136988.2927216.257021.4589844.355469a2.386832 2.4086047 10.871574 0 0  .0410156.023437c.1652711.093451.3414337.167108.5253906.21875a2.386832 2.4086047 10.871574 0 0  .0332032.009766c.1963577.052009.4008448.080417.609375.080078l8.1132816-.013672c.203256-.000286.401769-.03004.59375-.080078a2.386832 2.4086047 10.871574 0 0  .052734-.013672c.186924-.053367.365515-.128241.533203-.224609a2.386832 2.4086047 10.871574 0 0  .03125-.019531c.164233-.097803.317477-.214388.455078-.34961a2.386832 2.4086047 10.871574 0 0  .029297-.027344c.139586-.141845.26236-.303816.365234-.480468a2.386832 2.4086047 10.871574 0 0  .007813-.011719l4.068359-7.091797a2.386832 2.4086047 10.871574 0 0  .263672-.6875z" opacity=".2"/><path d="m11.5 7.4999961c-4.21875 0-7.5 3.5000019-7.5 4.5820339 0 1.417969 3.28125 4.41797 7.5 4.41797s7.5-3.500001 7.5-4.41797c0-1.082032-3.28125-4.5820339-7.5-4.5820339z" opacity=".2"/><path d="m11.5 6.9999963c-4.21875 0-7.5 3.5000007-7.5 4.5820327 0 1.417969 3.28125 4.41797 7.5 4.41797s7.5-3.500001 7.5-4.41797c0-1.082032-3.28125-4.5820327-7.5-4.5820327z" fill="#fff"/><circle cx="11.5" cy="11.5" fill="#1b87e6" r="3.5"/><circle cx="11.5" cy="11.5" fill="#3f3f3f" r="1.5"/><path d="m15.572266 2-8.1132816.0136719a2.386832 2.4086047 10.871574 0 0 -1.1445313.296875 2.386832 2.4086047 10.871574 0 0 -.9238281.9101562l-4.0683594 7.0917969a2.386832 2.4086047 10.871574 0 0 -.3066406 1.460938 2.386832 2.4086047 10.871574 0 1  .3066406-.960938l4.0683594-7.0917969a2.386832 2.4086047 10.871574 0 1  .9238281-.9101562 2.386832 2.4086047 10.871574 0 1 1.1445313-.296875l8.1132816-.0136719a2.386832 2.4086047 10.871574 0 1 2.064453 1.2011719l4.044922 7.0781251a2.386832 2.4086047 10.871574 0 1  .302734.947265 2.386832 2.4086047 10.871574 0 0 -.302734-1.447265l-4.044922-7.0781251a2.386832 2.4086047 10.871574 0 0 -2.064453-1.2011719z" fill="#fff" opacity=".2"/></svg>

<svg xmlns="http://www.w3.org/2000/svg" width="24" height="24" version="1">
 <path style="opacity:0.2" d="M 6.3150028,2.8111197 A 2.386832,2.4086047 10.871574 0 0 5.3898785,3.7213529 L 1.32195,10.813109 a 2.386832,2.4086047 10.871574 0 0 -0.004,2.408068 l 4.044537,7.078415 a 2.386832,2.4086047 10.871574 0 0 2.0657231,1.200405 l 8.1123079,-0.01361 a 2.386832,2.4086047 10.871574 0 0 2.069734,-1.207425 l 4.067823,-7.091939 a 2.386832,2.4086047 10.871574 0 0 0.0039,-2.408068 L 17.637538,3.7005344 A 2.386832,2.4086047 10.871574 0 0 15.57162,2.4999984 L 7.4594166,2.5137969 A 2.386832,2.4086047 10.871574 0 0 6.3146263,2.8110953 Z"/>
 <path style="fill:#ff4141" d="M 6.3150028,2.3111199 A 2.386832,2.4086047 10.871574 0 0 5.3898785,3.2213531 L 1.32195,10.313108 a 2.386832,2.4086047 10.871574 0 0 -0.004,2.408068 l 4.044537,7.078415 a 2.386832,2.4086047 10.871574 0 0 2.0657231,1.200405 l 8.1123079,-0.01361 a 2.386832,2.4086047 10.871574 0 0 2.069734,-1.207425 l 4.067823,-7.091939 a 2.386832,2.4086047 10.871574 0 0 0.0039,-2.408068 L 17.637538,3.2005346 A 2.386832,2.4086047 10.871574 0 0 15.57162,1.9999986 L 7.4594166,2.0137971 A 2.386832,2.4086047 10.871574 0 0 6.3146263,2.3110955 Z"/>
 <path style="opacity:0.2" d="M 6.6787099,2.1503857 A 2.386832,2.4086047 10.871574 0 0 6.3144518,2.3115186 2.386832,2.4086047 10.871574 0 0 5.389647,3.221675 l -4.0673839,7.091799 a 2.386832,2.4086047 10.871574 0 0 -0.00391,2.407227 L 5.362303,19.799804 A 2.386832,2.4086047 10.871574 0 0 7.4277336,21 L 15.54004,20.98633 a 2.386832,2.4086047 10.871574 0 0 1.634766,-0.657227 L 6.6787099,2.1503857 Z"/>
 <path style="opacity:0.2" d="M 16.47754,2.1826123 5.9999987,20.329101 c 0,0 -0.067045,0.103508 -0.082031,0.125977 A 2.386832,2.4086047 10.871574 0 0 7.4277336,21 L 15.54004,20.98633 a 2.386832,2.4086047 10.871574 0 0 2.070313,-1.207031 l 4.067384,-7.091801 a 2.386832,2.4086047 10.871574 0 0 0.0039,-2.408204 L 17.637697,3.2001906 A 2.386832,2.4086047 10.871574 0 0 16.47754,2.1826123 Z"/>
 <path style="opacity:0.2" d="M 1.0507812 12 A 2.386832 2.4086047 10.871574 0 0 1.3183594 12.720703 L 5.3632812 19.798828 A 2.386832 2.4086047 10.871574 0 0 5.3730469 19.814453 C 5.4731596 19.986319 5.5932754 20.142637 5.7285156 20.28125 A 2.386832 2.4086047 10.871574 0 0 5.7597656 20.3125 C 5.8984999 20.449488 6.0524872 20.569521 6.21875 20.667969 A 2.386832 2.4086047 10.871574 0 0 6.2597656 20.691406 C 6.4250367 20.784857 6.6011993 20.858514 6.7851562 20.910156 A 2.386832 2.4086047 10.871574 0 0 6.8183594 20.919922 C 7.0147171 20.971931 7.2192042 21.000339 7.4277344 21 L 15.541016 20.986328 C 15.744272 20.986042 15.942785 20.956288 16.134766 20.90625 A 2.386832 2.4086047 10.871574 0 0 16.1875 20.892578 C 16.374424 20.839211 16.553015 20.764337 16.720703 20.667969 A 2.386832 2.4086047 10.871574 0 0 16.751953 20.648438 C 16.916186 20.550635 17.06943 20.43405 17.207031 20.298828 A 2.386832 2.4086047 10.871574 0 0 17.236328 20.271484 C 17.375914 20.129639 17.498688 19.967668 17.601562 19.791016 A 2.386832 2.4086047 10.871574 0 0 17.609375 19.779297 L 21.677734 12.6875 A 2.386832 2.4086047 10.871574 0 0 21.941406 12 L 1.0507812 12 z"/>
 <path style="opacity:0.2" d="M 11.5,7.4999961 C 7.28125,7.4999961 4,10.999998 4,12.08203 4,13.499999 7.28125,16.5 11.5,16.5 15.71875,16.5 19,12.999999 19,12.08203 19,10.999998 15.71875,7.4999961 11.5,7.4999961 Z"/>
 <path style="fill:#ffffff" d="m 11.5,6.9999963 c -4.21875,0 -7.5,3.5000007 -7.5,4.5820327 0,1.417969 3.28125,4.41797 7.5,4.41797 4.21875,0 7.5,-3.500001 7.5,-4.41797 0,-1.082032 -3.28125,-4.5820327 -7.5,-4.5820327 z"/>
 <circle style="fill:#1b87e6" cx="11.5" cy="11.5" r="3.5"/>
 <circle style="fill:#3f3f3f" cx="11.5" cy="11.5" r="1.5"/>
 <path style="fill:#ffffff;opacity:0.2" d="M 15.572266 2 L 7.4589844 2.0136719 A 2.386832 2.4086047 10.871574 0 0 6.3144531 2.3105469 A 2.386832 2.4086047 10.871574 0 0 5.390625 3.2207031 L 1.3222656 10.3125 A 2.386832 2.4086047 10.871574 0 0 1.015625 11.773438 A 2.386832 2.4086047 10.871574 0 1 1.3222656 10.8125 L 5.390625 3.7207031 A 2.386832 2.4086047 10.871574 0 1 6.3144531 2.8105469 A 2.386832 2.4086047 10.871574 0 1 7.4589844 2.5136719 L 15.572266 2.5 A 2.386832 2.4086047 10.871574 0 1 17.636719 3.7011719 L 21.681641 10.779297 A 2.386832 2.4086047 10.871574 0 1 21.984375 11.726562 A 2.386832 2.4086047 10.871574 0 0 21.681641 10.279297 L 17.636719 3.2011719 A 2.386832 2.4086047 10.871574 0 0 15.572266 2 z"/>
</svg>
